X:1
T:In Memoriam (Stainer), 86.76.76.76
T:In Memoriam (Stainer), 86.76.76.76
T:John Stainer, 1875
T:Public Domain Courtesy of the Cyber Hymnal™
C:John Stainer, 1875
Z:Public Domain
Z:Courtesy of the Cyber Hymnal™
%%score ( 1 2 ) ( 3 4 )
L:1/8
Q:1/4=100
M:6/8
K:Eb
V:1 treble 
V:2 treble 
V:3 bass 
V:4 bass 
V:1
 [EG]2 [EG] | [EA]2 [DG] [CF]2 [DG] | E3 E2 [DF] | [EG]2 [DA] (BG)[Ec] | [EB]3 z2 [DB] | %5
 [Ee]2 [Ed] [Ec]2 [Fd] | [Ee]3 [EB]2 [EB] | [Ec]2 [EB] (BA)[EG] | [DF]3 [DF]3 | %9
 [CF]2 [C=E] [DF]2 [EG] | [FA]3 [FA]2 E | E2 [B,D] [CE]2 [DF] | [EG]3 [FB]3 | %13
 [Ee]2 [Ee] [Ed]2 [Ed] | [Ec]3 [EB]2 [DA] | ([EG][FA])[GB] [EG]2 [DF] | E3 |] %17
V:2
 x3 | x6 | E3 E2 x | x3 E2 x | x6 | x6 | x6 | x3 F2 x | x6 | x6 | x5 E | E2 x4 | x6 | x6 | x6 | %15
 x6 | E3 |] %17
V:3
 [E,B,]2 [D,B,] | [C,A,]2 [B,,B,] [A,,C]2 [B,,A,] | [E,G,]2 [A,C] [G,B,]2 [F,A,] | %3
 [E,B,]2 [F,B,] [G,B,]2 A, | [E,G,]3 z2 [F,A,] | [G,B,]2 [G,B,] [A,C]2 [A,B,] | %6
 [G,B,]3 [G,B,]2 [G,B,] | A,2 [G,B,] [D,B,]2 [E,B,] | [B,,B,]3 B,3 | [A,C]2 [B,C] [A,C]2 [G,B,] | %10
 [F,C]3 [F,C]2 [A,C] | [G,B,]2 [A,B,] [G,B,]2 [F,A,] | [E,G,]3 [D,F,]3 | %13
 [C,G,]2 [C,G,] [B,,G,]2 [B,,G,] | A,3 [G,B,]2 [F,B,] | [E,B,]2 [G,,B,] [B,,B,]2 [B,,A,] | %16
 [E,G,]3 |] %17
V:4
 x3 | x6 | x6 | x5 A, | x6 | x6 | x6 | A,2 x4 | x3 B,3 | x6 | x6 | x6 | x6 | x6 | (A,,2 A,) x3 | %15
 x6 | x3 |] %17

